X: 18641
T: I Would Rather Than Ireland
R: waltz
M: 3/4
K: Dminor
[D2A2][D2A2] de|f2.A2.A2|f2 (gfed)|c2 (=BA)(Bc)|
.d2 .d.e.f.e|.d2 (c<A)(GF)|G2 [E2A2c2][D2^G2=B2]|[C4A4]||
FG|(A2_B2) AG|(c2 BA)(GF)|G2 (GB)(AG)|F2 (ED FG)|
(A2f2) [G2^c2e2]|(defA)(GF)|GBAGFE|D4 FG|
[F2A2][G2B2] AG|[A2c2](BA)(GF)|G2 GBAG|(GF)(ED)FG|
A2 [b2f2][G2^c2e2]|(defA)(GF)|GBAGFE|D4||

